X: 1
T: Dougie's Decision
P: piffero primo a0543
O: John Gahagan
%R: jig
F: http://ancients.sudburymuster.org/mus/sng/pdf/dougiesC0.pdf
Z: 2020 John Chambers <jc:trillian.mit.edu>
M: 6/8
L: 1/8
K: Amix
z |\
AAA AaA | gAf ecA | GGG GdG | eGd BAG |\
AAA AaA | gAf ecA | GGG BGd | cAA A2 :|
|: z |\
cAc eca | cac gca | BGB dBd | gdg agd |\
cAc eca | cac eca | BGB dBd | cAA A2 :|
|: z |\
cea cea | cea c2A | BgB aBg | BgB aBd |\
cea cea | cea c2A | BGB dBd | cAA A2 :|
|: z |\
aea cac | eac ace | BGB dBd | gdg agd |\
aea cac | eac ace | BGB dBd | cAA A2 :|
